mimes/symbolic/text-html-symbolic.svg

<?xml version="1.0" encoding="UTF-8" standalone="no"?>
<svg
   xmlns:dc="http://purl.org/dc/elements/1.1/"
   xmlns:cc="http://creativecommons.org/ns#"
   xmlns:rdf="http://www.w3.org/1999/02/22-rdf-syntax-ns#"
   xmlns:svg="http://www.w3.org/2000/svg"
   xmlns="http://www.w3.org/2000/svg"
   version="1.1"
   width="16"
   height="16"
   id="svg3862">
  <defs
     id="defs3864" />
  <metadata
     id="metadata3867">
    <rdf:RDF>
      <cc:Work
         rdf:about="">
        <dc:format>image/svg+xml</dc:format>
        <dc:type
           rdf:resource="http://purl.org/dc/dcmitype/StillImage" />
        <dc:title />
      </cc:Work>
    </rdf:RDF>
  </metadata>
  <g
     id="layer1">
    <path
       d="M 8,0 C 3.581722,0 0,3.581722 0,8 c 0,4.418278 3.581722,8 8,8 4.418278,0 8,-3.581722 8,-8 C 16,3.581722 12.418278,0 8,0 z M 8.5625,1.03125 C 9.8288346,1.1318575 10.981939,1.56508 11.96875,2.25 l -0.28125,-0.0625 -0.34375,-0.125 -0.5,0.125 -0.3125,0.21875 0,0.1875 L 10,2.9375 l 0.125,0.5 0.28125,-0.21875 0.1875,0.21875 0.21875,0.125 0.125,-0.375 L 10.875,2.96875 10.9375,2.8125 11.25,2.53125 l 0.125,0 -0.125,0.3125 0,0.28125 C 11.372979,3.09085 11.499148,3.07847 11.625,3.0625 L 11.28125,3.3125 11.25,3.46875 10.84375,3.8125 10.4375,3.71875 l 0,-0.25 -0.1875,0.125 0.09375,0.21875 -0.3125,0 L 9.875,4.09375 9.6875,4.3125 9.3125,4.375 9.53125,4.59375 9.59375,4.8125 9.3125,4.8125 8.96875,5 l 0,0.5625 0.15625,0 L 9.28125,5.71875 9.625,5.5625 9.75,5.21875 10,5.0625 l 0.03125,-0.125 0.40625,-0.09375 0.21875,0.25 0.25,0.125 L 10.75,5.5 l 0.21875,-0.0625 0.125,-0.28125 -0.28125,-0.3125 0.125,0 0.25,0.21875 0.0625,0.3125 0.21875,0.28125 0.0625,-0.40625 0.125,-0.0625 C 11.788583,5.327668 11.888544,5.4985 12,5.65625 L 12.4375,5.6875 12.65625,5.84375 12.5625,6 l -0.25,0.21875 -0.34375,0 L 11.5,6.0625 l -0.21875,0.03125 -0.1875,0.1875 -0.5,-0.5 L 10.25,5.6875 9.75,5.75 9.28125,5.875 C 9.0259385,6.170326 8.7729014,6.474542 8.53125,6.78125 L 8.25,7.5 8.375,7.625 8.125,8 8.40625,8.65625 c 0.2275857,0.26268 0.4602459,0.518385 0.6875,0.78125 l 0.34375,-0.28125 0.125,0.15625 0.375,-0.21875 0.125,0.125 0.34375,0 0.21875,0.25 -0.125,0.4375 0.25,0.28125 -0.03125,0.5 0.21875,0.375 -0.15625,0.3125 C 10.76792,11.602439 10.75,11.835024 10.75,12.0625 c 0.109688,0.308174 0.240174,0.595859 0.34375,0.90625 l 0.0625,0.5 0,0.25 0.1875,0 0.3125,-0.1875 0.34375,0 0.5,-0.59375 -0.0625,-0.21875 0.375,-0.3125 -0.28125,-0.28125 0.3125,-0.25 0.3125,-0.1875 0.125,-0.15625 -0.09375,-0.34375 0,-0.875 0.25,-0.53125 0.28125,-0.3125 0.34375,-0.8125 0,-0.21875 C 13.901651,8.45818 13.751139,8.48857 13.59375,8.5 l 0.3125,-0.34375 0.4375,-0.3125 0.25,-0.28125 0,-0.28125 C 14.54017,7.178163 14.491441,7.040587 14.4375,6.9375 L 14.21875,7.21875 14.0625,7 l -0.25,-0.1875 0,-0.375 0.28125,0.3125 0.3125,-0.03125 c 0.140211,0.129874 0.283271,0.227131 0.40625,0.375 l 0.09375,-0.125 C 14.956345,7.3066221 15,7.6481946 15,8 c 0,3.865993 -3.134007,7 -7,7 -1.1342792,0 -2.2086612,-0.271097 -3.15625,-0.75 0.051459,-0.03988 0.125,-0.09375 0.125,-0.09375 L 4.90625,14.03125 5.125,13.8125 5.1875,13.59375 5.53125,13.5 5.78125,12.8125 5.71875,12.65625 5.875,12.375 6.28125,12.28125 6.46875,11.8125 6.4375,11.1875 6.75,10.75 6.78125,10.3125 C 6.3548156,10.09675 5.954505,9.878395 5.53125,9.65625 L 5.3125,9.21875 4.9375,9.125 4.71875,8.5625 4.21875,8.625 3.75,8.28125 l -0.46875,0.4375 0,0.0625 C 3.1397511,8.739582 2.9697439,8.735292 2.84375,8.65625 L 2.75,8.34375 2.75,8.03125 2.4375,8.0625 C 2.463514,7.852424 2.505061,7.616289 2.53125,7.40625 l -0.1875,0 -0.1875,0.25 L 1.96875,7.75 1.71875,7.59375 1.6875,7.28125 1.71875,6.90625 2.125,6.625 2.4375,6.625 2.5,6.4375 2.875,6.53125 3.15625,6.875 3.21875,6.28125 3.71875,5.875 3.875,5.40625 4.25,5.25 4.46875,4.96875 4.9375,4.875 5.15625,4.5 l -0.6875,0 0.4375,-0.1875 0.3125,0 L 5.625,4.15625 5.6875,4.5625 5.875,4.28125 5.65625,4.125 5.71875,3.96875 5.5625,3.8125 5.375,3.78125 5.4375,3.59375 5.28125,3.3125 4.96875,3.4375 5.03125,3.1875 4.65625,2.96875 4.375,3.5 4.40625,3.65625 4.125,3.78125 3.9375,4.1875 3.875,3.8125 3.375,3.625 3.28125,3.34375 3.9375,2.96875 4.21875,2.6875 4.25,2.34375 4.09375,2.25 l -0.0625,0 C 4.2587403,2.0921048 4.4727365,1.9430103 4.71875,1.8125 l 0,0.09375 -0.21875,0.1875 -0.15625,0.375 0.3125,0 0.09375,-0.25 0.03125,-0.0625 C 4.9069727,2.065532 5.028199,1.96232 5.15625,1.875 l 0.3125,0.09375 C 5.6630105,2.103411 5.8368285,2.240542 6.03125,2.375 L 6.34375,2.09375 6,1.96875 5.875,1.65625 5.3125,1.59375 l 0,-0.03125 0,-0.03125 c 0.00905,-0.00377 0.022179,0.00373 0.03125,0 L 5.53125,1.59375 5.6875,1.4375 5.96875,1.375 C 6.039363,1.33996 6.1162225,1.30977 6.1875,1.28125 L 6,1.46875 6.65625,1.9375 l 0,0.28125 L 6.40625,2.5 6.75,3.1875 7,3.0625 7.28125,2.59375 C 7.7007355,2.461422 8.104073,2.308025 8.5,2.125 L 8.46875,2.3125 8.65625,2.4375 9,2.1875 8.84375,2 8.59375,2.125 8.5625,2.09375 8.90625,1.15625 z M 4.75,2.21875 5.03125,2.4375 l 0.25,0 0,-0.25 L 5,2.0625 z M 3.8125,2.40625 3.75,2.5625 c 0,0 -0.1027341,0.014953 -0.1875,0.03125 0.080768,-0.066656 0.1662507,-0.1244571 0.25,-0.1875 z M 12.25,2.4375 c 0.06485,0.049824 0.124471,0.1042336 0.1875,0.15625 L 12.1875,2.875 11.84375,2.5 l 0.34375,0 z m -3.03125,0.40625 0,0.1875 0.125,0.15625 0,0.28125 L 9.28125,3.875 9.59375,3.8125 9.84375,3.59375 9.625,3.375 C 9.556461,3.18878 9.4920315,3.022357 9.40625,2.84375 z M 8.9375,3.25 8.75,3.3125 8.78125,3.6875 9.0625,3.53125 z m 3.65625,3.34375 0.28125,0.34375 0.375,0.78125 0.21875,0.25 -0.125,0.28125 0.21875,0.25 c -0.09128,0.0061 -0.187428,0 -0.28125,0 C 13.110809,8.134572 12.973543,7.757297 12.84375,7.375 L 12.625,7.125 12.5,6.65625 z M 1.03125,7.5 C 1.0729857,7.6004243 1.25,7.90625 1.25,7.90625 L 1.78125,8.21875 2.34375,8.375 2.5625,8.6875 2.9375,8.96875 3.125,8.90625 3.28125,9 l 0,0.03125 -0.1875,0.59375 -0.15625,0.21875 0.03125,0.125 -0.125,0.46875 0.46875,0.84375 0.46875,0.4375 L 4,12 3.96875,12.65625 4.125,13 3.96875,13.6875 c 0,0 0.00249,0.0238 0,0.03125 C 2.1796562,12.450692 1,10.359796 1,8 1,7.8317746 1.0195795,7.6652555 1.03125,7.5 z"
       id="path6534"
       style="color:#bebebe;fill:#bebebe;fill-opacity:1;fill-rule:nonzero;stroke:none;stroke-width:1;marker:none;visibility:visible;display:inline;overflow:visible;enable-background:accumulate" />
  </g>
</svg>

<svg xmlns="http://www.w3.org/2000/svg" viewBox="0 0 16 16"><path d="M8 0a8 8 0 1 0 0 16A8 8 0 0 0 8 0zm.563 1.03a6.89 6.89 0 0 1 3.406 1.22l-.29-.063-.345-.124-.5.124-.313.22v.187l-.53.344.124.5.28-.22.19.22.217.124.125-.374-.064-.22.062-.155.31-.282h.125l-.124.32v.28c.122-.03.25-.043.374-.06l-.344.25-.03.158-.405.343-.404-.093v-.25l-.19.123.094.22-.314-.004-.154.284-.19.218-.374.064.217.22.064.22H9.3l-.34.18v.563h.155l.156.156.347-.16.124-.344.25-.157.03-.126.41-.093.217.25.25.125-.156.28.22-.063.125-.28-.28-.312h.123l.25.22.064.312.22.28.06-.407.127-.063c.132.14.232.31.343.47l.44.03.217.157-.094.16-.25.22h-.343l-.47-.16-.22.03-.186.186-.5-.5-.34-.093-.5.063-.47.125c-.252.297-.505.6-.75.908l-.28.72.127.126-.25.375.28.655c.23.263.46.52.69.78l.343-.28.125.156.376-.215.125.125h.344l.22.25-.128.435.25.28-.03.5.217.375-.155.315c-.014.226-.03.46-.03.687.11.31.24.596.342.907l.062.5v.25h.187l.313-.19H12l.5-.59-.063-.22.376-.316-.282-.28.32-.25.31-.188.13-.16-.093-.34v-.876l.25-.53.28-.312.346-.815v-.22c-.16.022-.312.053-.47.064l.313-.346.44-.31.25-.28v-.28c-.055-.105-.104-.24-.157-.346l-.22.282L14.07 7l-.25-.19v-.375l.28.313.313-.03c.14.13.284.226.406.374l.09-.125c.05.336.092.677.092 1.03A7 7 0 0 1 4.85 14.25c.05-.04.124-.095.124-.095l-.063-.123.22-.217.06-.22.35-.094.25-.69-.06-.15.154-.28.405-.093.19-.467-.033-.628.314-.437.03-.437c-.425-.216-.825-.435-1.25-.657l-.22-.435-.374-.095-.217-.564-.5.064-.47-.343-.47.44v.06c-.14-.04-.31-.044-.437-.123l-.094-.31v-.31l-.314.032c.025-.21.066-.447.092-.657H2.35l-.19.25-.187.09-.25-.156-.032-.314.03-.37.41-.28h.318l.063-.19.375.095.28.345.065-.593.5-.406.154-.47.376-.152.22-.28.47-.096.217-.376h-.69l.436-.19h.312l.404-.155.06.405.19-.28-.22-.156.062-.16-.156-.16-.186-.03.064-.19-.156-.28-.31.126.06-.25-.377-.22-.28.53.03.156-.28.127-.19.407-.06-.374-.5-.185-.092-.28.655-.377.28-.283.03-.344-.156-.096h-.06c.23-.158.442-.307.69-.438v.093l-.23.19-.156.375h.313l.094-.25.03-.063c.127-.09.248-.194.376-.28l.313.093c.19.133.36.27.56.405l.31-.28L6 1.968l-.125-.314-.563-.062V1.53c.01-.005.023.003.032 0l.187.062.16-.157.28-.062c.07-.035.15-.065.22-.094L6 1.47l.656.468v.28l-.25.282.344.688.25-.126.28-.468a10.2 10.2 0 0 0 1.22-.47l-.03.188.186.126.344-.25L8.844 2l-.25.125-.03-.03.342-.94zM4.75 2.22l.28.217h.25v-.25L5 2.063zm-.938.186l-.062.156s-.103.015-.188.032c.08-.067.167-.125.25-.188zm8.438.03c.065.05.124.106.188.158l-.25.28-.344-.374h.344zm-3.03.408v.187l.124.16v.28l-.063.41.32-.06.25-.22-.22-.22a5.843 5.843 0 0 0-.22-.53zm-.283.406l-.187.063.03.374.283-.156zm3.657 3.344l.28.343.376.782.22.25-.126.28.22.25h-.283a11.39 11.39 0 0 1-.43-1.13l-.22-.25-.12-.47zM1.03 7.5c.043.1.22.406.22.406l.53.313.564.15.22.31.373.28.188-.06.155.1v.03l-.186.592-.156.22.03.124-.124.46.47.845.467.44L4 12l-.03.656.155.344-.156.688v.03A7.01 7.01 0 0 1 1 8c0-.168.02-.335.03-.5z" color="#bebebe" fill="#bebebe" overflow="visible"/></svg>
